src/dark/hiso font dark_s.svg

<svg xmlns="http://www.w3.org/2000/svg" width="90" height="126" viewBox="0 0 90 126"><path fill="#000101" d="M36 45l36-18-36-18-36 18v36l36 18-36 18 36 18 36-18v-36l-36-18zm-33 16.15v-32.3l33-16.5 29.29 14.65-32.29 16.15v33l-30-15zm33-12.8l29.29 14.65-29.29 14.65v-29.3zm0 65.3l-29.301-14.65 32.65-16.32 29.301 14.64-32.65 16.33z"/></svg>

<svg xmlns="http://www.w3.org/2000/svg" width="90" height="126"><path fill="#000101" d="M36 45l36-18L36 9 0 27v36l36 18L0 99l36 18 36-18V63L36 45zM3 61.15v-32.3l33-16.5L65.29 27 33 43.15v33l-30-15zm33-12.8L65.29 63 36 77.65v-29.3zm0 65.3L6.699 99l32.65-16.32L68.65 97.32 36 113.65z"/></svg>
